front/templates/images/cover-waving-bg.svg

<?xml version="1.0" encoding="UTF-8"?>
<svg width="375px" height="86px" viewBox="0 0 375 86" version="1.1" xmlns="http://www.w3.org/2000/svg" xmlns:xlink="http://www.w3.org/1999/xlink">
    <!-- Generator: Sketch 57.1 (83088) - https://sketch.com -->
    <title>mini-cover-default-waving-bg</title>
    <desc>Created with Sketch.</desc>
    <g id="Page-1" stroke="none" stroke-width="1" fill="none" fill-rule="evenodd" fill-opacity="0.1">
        <g id="mini-cover-default-waving-bg" fill="#000000">
            <path d="M375,0 L375,50.872 L360.791667,54.6691787 C339.583333,60.3360385 297.166667,71.6697583 254.75,69.792611 C212.333333,67.7737922 169.916667,52.8982849 127.5,37.668599 C85.083333,22.438913 42.666667,7.5634058 0.25,7.4571521 L0,7.458 L0,0 L375,0 Z" id="Combined-Shape"></path>
            <path d="M375,0 L375.00054,85.7053024 C337.833693,79.72329 300.666847,66.5040784 263.5,53.0358573 C216.75,36.0949706 170,19.5480581 123.25,19.4298659 C76.5,19.5480581 29.75,36.0949706 6.375,44.6442088 L0,46.932 L0,0 L375,0 Z" id="Combined-Shape"></path>
        </g>
    </g>
</svg>

<svg width="375" height="86" xmlns="http://www.w3.org/2000/svg"><g fill-rule="evenodd" fill-opacity=".1"><path d="M375 0v50.872l-14.208 3.797c-21.209 5.667-63.625 17-106.042 15.124-42.417-2.02-84.833-16.895-127.25-32.124C85.083 22.439 42.667 7.563.25 7.457L0 7.458V0h375z"/><path d="M375 0v85.705c-37.166-5.982-74.333-19.2-111.5-32.67-46.75-16.94-93.5-33.487-140.25-33.605-46.75.118-93.5 16.665-116.875 25.214L0 46.932V0h375z"/></g></svg>
